svg/color/qcomon.svg

<svg width="40" height="40" viewBox="0 0 40 40" fill="none" xmlns="http://www.w3.org/2000/svg">
<g clip-path="url(#clip0_819_3655)">
<path d="M20 0C31.0457 0 40 8.9543 40 20C40 31.0457 31.0457 40 20 40C8.95431 40 7.90517e-06 31.0457 0 20C6.58765e-07 8.95431 8.95431 1.97595e-06 20 0Z" fill="#D6DDF8"/>
<path d="M26 6C30.4183 6 34 9.58172 34 14V26C34 30.4183 30.4183 34 26 34H14C9.58172 34 6 30.4183 6 26V14C6 9.58172 9.58172 6 14 6H26Z" fill="#3253DC"/>
<path d="M20.0001 10C15.1912 10 11.3135 13.7387 11.3135 18.7283C11.3135 23.7318 15.1912 27.4566 20.0001 27.4566C20.8201 27.4566 21.6123 27.3454 22.3628 27.1369L23.3079 29.5692C23.4052 29.8332 23.5998 30 23.9472 30H25.4483C25.8097 30 26.0737 29.7637 25.9069 29.3051L24.6839 26.1223C27.0883 24.6074 28.6866 21.9249 28.6866 18.7144C28.6866 13.7387 24.809 10 20.0001 10ZM23.7805 23.8013L22.6825 20.952C22.5852 20.7158 22.3906 20.4934 21.9737 20.4934H20.5421C20.1807 20.4934 19.9028 20.7297 20.0696 21.1883L21.515 24.927C21.0425 25.0521 20.5282 25.1077 20.0001 25.1077C16.4837 25.1077 13.982 22.3419 13.982 18.7283C13.982 15.1147 16.4837 12.3488 20.0001 12.3488C23.5164 12.3488 26.0181 15.1147 26.0181 18.7283C26.0181 20.8409 25.1703 22.6477 23.7805 23.8013Z" fill="white"/>
</g>
<defs>
<clipPath id="clip0_819_3655">
<rect width="40" height="40" fill="white"/>
</clipPath>
</defs>
</svg>

<svg xmlns="http://www.w3.org/2000/svg" width="40" height="40" fill="none" viewBox="0 0 40 40"><g clip-path="url(#qcomon_svg-a)"><path fill="#D6DDF8" d="M20 0c11.046 0 20 8.954 20 20s-8.954 20-20 20S0 31.046 0 20 8.954 0 20 0"/><path fill="#3253DC" d="M26 6a8 8 0 0 1 8 8v12a8 8 0 0 1-8 8H14a8 8 0 0 1-8-8V14a8 8 0 0 1 8-8z"/><path fill="#fff" d="M20 10c-4.809 0-8.686 3.739-8.686 8.728 0 5.004 3.877 8.729 8.686 8.729a8.8 8.8 0 0 0 2.363-.32l.945 2.432c.097.264.292.431.64.431h1.5c.362 0 .626-.236.459-.695l-1.223-3.183c2.404-1.515 4.003-4.197 4.003-7.408C28.687 13.74 24.809 10 20 10m3.78 13.801-1.098-2.849c-.097-.236-.291-.459-.708-.459h-1.432c-.361 0-.64.237-.472.695l1.445 3.739c-.473.125-.987.18-1.515.18-3.516 0-6.018-2.765-6.018-6.379s2.502-6.38 6.018-6.38 6.018 2.767 6.018 6.38c0 2.113-.848 3.92-2.238 5.073"/></g><defs><clipPath id="qcomon_svg-a"><path fill="#fff" d="M0 0h40v40H0z"/></clipPath></defs></svg>
